X:1
T:Title
%%score { ( 1 4 ) | ( 2 3 ) }
L:1/8
Q:1/4=100
M:3/4
K:C
V:1 treble nm="Grand Piano"
V:4 treble 
V:2 bass 
V:3 bass 
V:1
 [CE]4 [EG]2 | [EG]4 [Gc]2 | [Ac]2 B2 A2 | A4 [EG]2 | [EG]4 [Ec]2 | G4 [Ge]2 | [Fd]2 [Ge]2 [Fd]2 | %7
w: Wilhaml~Brockhaus *|||||||
 [Ec]4 z2 | [Ge]4 [Ge]2 | e2 d2 [^Fd]2 | d2 B2 [B,G]2 | [CGc]4 [CG]2 | [Ac]2 B2 A2 | G4 c2 | %14
w: |||||||
 e4 d2 | [Ec]4 z2 |] %16
w: ||
V:2
 [C,G,]4 [C,C]2 | [C,C]4 [E,C]2 | z2[K:treble] G2 [A,CF]2 | [CF]4[K:bass] [C,C]2 | [C,C]4 [C,C]2 | %5
 [E,C]4 [C,C]2 | [G,B,]4 [G,B,]2 | [C,C]4 z2 | [C,C]4 [C,C]2 | [D,A,]4 [D,A,]2 | %10
 [G,F]2- [G,DF]2[K:bass] F,2 | E,4 E,2 | z2[K:treble] G2 [A,CF]2 | [CE]4 [A,CE]2 | %14
 [G,CG]4 [G,B,F]2 | [C,G,]4 z2 |] %16
V:3
 x6 | x6 | [F,C]4[K:treble] z2 | x4[K:bass] x2 | x6 | x6 | x6 | x6 | x6 | x6 | B,2 z2[K:bass] z2 | %11
 x6 | F,4[K:treble] z2 | x6 | x6 | x6 |] %16
V:4
 x6 | x6 | x6 | x6 | x6 | x6 | x6 | x6 | x6 | ^F4 z2 | x6 | x6 | C4 z2 | x6 | x6 | x6 |] %16

